Numix-Light/scalable/mimetypes/x-office-presentation-symbolic.svg

<?xml version="1.0" encoding="UTF-8" standalone="no"?>
<svg
   xmlns:dc="http://purl.org/dc/elements/1.1/"
   xmlns:cc="http://creativecommons.org/ns#"
   xmlns:rdf="http://www.w3.org/1999/02/22-rdf-syntax-ns#"
   xmlns:svg="http://www.w3.org/2000/svg"
   xmlns="http://www.w3.org/2000/svg"
   xmlns:sodipodi="http://sodipodi.sourceforge.net/DTD/sodipodi-0.dtd"
   xmlns:inkscape="http://www.inkscape.org/namespaces/inkscape"
   width="16"
   height="16"
   viewBox="0 0 16 16"
   id="svg2"
   version="1.1"
   inkscape:version="0.91 r"
   sodipodi:docname="x-office-presentation-symbolic.svg">
  <metadata
     id="metadata16">
    <rdf:RDF>
      <cc:Work
         rdf:about="">
        <dc:format>image/svg+xml</dc:format>
        <dc:type
           rdf:resource="http://purl.org/dc/dcmitype/StillImage" />
        <dc:title></dc:title>
      </cc:Work>
    </rdf:RDF>
  </metadata>
  <defs
     id="defs14" />
  <sodipodi:namedview
     pagecolor="#ffffff"
     bordercolor="#666666"
     borderopacity="1"
     objecttolerance="10"
     gridtolerance="10"
     guidetolerance="10"
     inkscape:pageopacity="0"
     inkscape:pageshadow="2"
     inkscape:window-width="1920"
     inkscape:window-height="1056"
     id="namedview12"
     showgrid="true"
     inkscape:zoom="20.85965"
     inkscape:cx="-9.697005"
     inkscape:cy="5.3459879"
     inkscape:window-x="0"
     inkscape:window-y="24"
     inkscape:window-maximized="1"
     inkscape:current-layer="svg2">
    <inkscape:grid
       type="xygrid"
       id="grid3004" />
  </sodipodi:namedview>
  <path
     style="fill:#353535;fill-opacity:1"
     d="M 2.6679688,1 C 2.3242188,1 2,1.3386309 2,1.6972656 L 2,14.302734 C 2,14.640991 2.3437498,15 2.6679688,15 L 13.332031,15 C 13.65625,15 14,14.640991 14,14.302734 L 14,5 10,1 Z M 3,2 10,2 10,4.3828125 C 10,4.6819115 10.337417,5.1155828 10.613281,5 L 13,5 13,14 3,14 Z"
     id="path4-2"
     inkscape:connector-curvature="0"
     sodipodi:nodetypes="ssssssccsccsccccc" />
  <path
     style="fill:#ffffff;fill-opacity:0.39200003"
     d="m -3.898306,1.0167263 3.996396,3.9999998 -3.383784,0 c -0.299099,0 -0.612612,-0.317117 -0.612612,-0.616216 z"
     id="path8"
     inkscape:connector-curvature="0"
     sodipodi:nodetypes="ccssc" />
  <g
     id="g4165"
     transform="translate(13.898306,-0.017172)"
     style="fill:#353535;fill-opacity:1">
    <path
       d="m -9.898306,6.0171721 2,0 0,2 -2,0 z"
       id="path12"
       inkscape:connector-curvature="0"
       style="fill:#353535;fill-opacity:1" />
    <path
       d="m -9.898306,9.0171721 2,0 0,1.9999999 -2,0 z"
       id="path14"
       inkscape:connector-curvature="0"
       style="fill:#353535;fill-opacity:1" />
    <path
       d="m -9.898306,12.017172 8,0 0,1 -8,0 z"
       id="path16"
       inkscape:connector-curvature="0"
       style="fill:#353535;fill-opacity:1" />
    <path
       sodipodi:nodetypes="cccc"
       d="m -3.898306,6.0171721 0,2 2,0 c 0,-1 -1,-2 -2,-2 z"
       id="path18"
       inkscape:connector-curvature="0"
       style="fill:#353535;fill-opacity:1" />
    <path
       sodipodi:nodetypes="cssccc"
       d="m -4.898306,6.6633299 c -1.2901857,0 -2,0.9235803 -2,2.1799251 0,1.256345 1.0448394,2.271573 2.3350251,2.271573 1.2859559,0 2.3547649,-0.841311 2.3547649,-2.0976559 l -2.68979,0 z"
       id="path20"
       inkscape:connector-curvature="0"
       style="fill:#353535;fill-opacity:1" />
  </g>
</svg>

<svg xmlns="http://www.w3.org/2000/svg" viewBox="0 0 16 16">
 <path d="m 2.668 1 c -0.344 0 -0.668 0.339 -0.668 0.697 l 0 12.605 c 0 0.338 0.344 0.697 0.668 0.697 l 10.664 0 c 0.324 0 0.668 -0.359 0.668 -0.697 l 0 -9.303 -4 -4 m -7 1 7 0 0 2.383 c 0 0.299 0.337 0.733 0.613 0.617 l 2.387 0 0 9 -10 0" style="fill:#353535;fill-opacity:1"/>
 <path d="m -3.898 1.017 3.996 4 -3.384 0 c -0.299 0 -0.613 -0.317 -0.613 -0.616 z" style="fill:#fff;fill-opacity:0.392"/>
 <g transform="translate(13.898306,-0.017172)" style="fill:#353535;fill-opacity:1">
  <path d="m -9.898 6.02 2 0 0 2 -2 0 z"/>
  <path d="m -9.898 9.02 2 0 0 2 -2 0 z"/>
  <path d="m -9.898 12.02 8 0 0 1 -8 0 z"/>
  <path d="m -3.898 6.02 0 2 2 0 c 0 -1 -1 -2 -2 -2 z"/>
  <path d="m -4.898 6.663 c -1.29 0 -2 0.924 -2 2.18 0 1.256 1.045 2.272 2.335 2.272 1.286 0 2.355 -0.841 2.355 -2.098 l -2.69 0 z"/>
 </g>
</svg>
